X:25
T:Ballroom Favourite #2, The
T:Michael Gaffney's
R:barndance
D:Harry Bradley: As I Carelessly Did Stray
D:John McKenna & Michael Gaffney
Z:id:hn-barndance-25
M:C|
L:1/8
K:D
(3fed A2 (3fed Ac | dfbf a4 | (3gfe B2 (3gfe Bd | cdec A2ag |
(3fed A2 (3fed Ac | dfbf a4 | g2fe B2c2 |1 edBc d2ag :|2 edBc d2 ||
(3ABc | dfed BAFA | dfed B3c | dfed BAFA | B2c2 d2 (3ABc |
dfed BAFA | (3dcd fd B2Bc | dfed BAFA | B2c2 d2ag ||

